src/24/actions/path-reverse.svg

<svg xmlns="http://www.w3.org/2000/svg" viewBox="0 0 24 24">
  <defs id="defs3051">
    <style type="text/css" id="current-color-scheme">
      .ColorScheme-Text {
        color:#5d656b;
      }
      .ColorScheme-Highlight {
        color:#3daee9;
      }
      </style>
  </defs>
 <path 
     style="fill:currentColor;fill-opacity:1;stroke:none" 
     d="M 19 4 C 19 7.5252626 16.390584 10.848181 13 11.408203 L 13 12.421875 C 16.945283 11.863369 20 8.0789056 20 4 L 19 4 z M 8 5 L 6 6.5 L 8 8 L 8 7 L 13 7 L 13 6 L 8 6 L 8 5 z M 11 11.578125 C 7.0547174 12.136634 4 15.921115 4 20 L 5 20 C 5 16.474744 7.6094159 13.15182 11 12.591797 L 11 11.578125 z M 16 16 L 16 17 L 11 17 L 11 18 L 16 18 L 16 19 L 18 17.5 L 16 16 z "
     class="ColorScheme-Text"
     />
 <path 
     style="fill:currentColor;fill-opacity:1;stroke:none" 
     d="M 10 10 L 10 14 L 14 14 L 14 10 L 10 10 z M 11 11 L 13 11 L 13 13 L 11 13 L 11 11 z "
     class="ColorScheme-Highlight"
     />
</svg>

<svg xmlns="http://www.w3.org/2000/svg" viewBox="0 0 24 24"><path d="M19 4c0 3.525-2.61 6.848-6 7.408v1.014c3.945-.559 7-4.343 7-8.422h-1zM8 5L6 6.5 8 8V7h5V6H8V5zm3 6.578c-3.945.559-7 4.343-7 8.422h1c0-3.525 2.61-6.848 6-7.408v-1.014zM16 16v1h-5v1h5v1l2-1.5-2-1.5z" fill="currentColor" color="#5d656b"/><path d="M10 10v4h4v-4h-4zm1 1h2v2h-2v-2z" fill="currentColor" color="#3daee9"/></svg>
